X:1
T:The Judgment Day
T:The Judgment Day
T:L. C. Davidson
T:Henry Clay Warth, 1915
T:Public Domain Courtesy of the Cyber Hymnal™
C:L. C. Davidson
Z:Public Domain
Z:Courtesy of the Cyber Hymnal™
%%score ( 1 2 ) ( 3 4 )
L:1/8
Q:1/4=145
M:6/4
K:G
V:1 treble 
V:2 treble 
V:3 bass 
V:4 bass 
V:1
 [GB]2 [DA]2 [DG]2 [DF]2 [DG]2 [FA]2 | [GB]4 [Gc]2 [GB]4 [=FB]2 | [Ec]4 [Ec]2 [EG]4 [_EA]2 | %3
w: 1.~What will you do when the|sum- mons comes A-|cross the tide of|
w: 2.~What will you say on that|fi- nal day Be-|fore the great white|
w: 3.~Will you be rea- dy when|Je- sus comes To|make His fi- nal|
 [DB]6- [DB]4 [GB]2 | ([FB]2 [DA]2) [DG]2 [DF]2 [DG]2 [FA]2 | [GB]4 [Fc]2 [Gd]4 [Gd]2 | %6
w: years * To|take * your place in the|halls of death Be-|
w: throne? * Will|others * be there you have|helped to win, Or|
w: call * For|those~who * have tak- en Him|as their Lord, Their|
 [G^c]4 [Gc]2 [GB]4 [GA]2 | d6- [Fd]4 z2 || %8
w: yond this vale of|tears? *|
w: will you stand a-|lone? What|
w: Sav- ior, all in|all? *|
"^Refrain" [Gd]2 [Ge]2 [Gd]2 [Fc]6 [Fc]2 [Fd]2 [Ac]2 [GB]4 [GB]2 | [FB]4 [^DF]2 [EG]4 [EA]2 | %10
w: ||
w: * will you say, what will you do, Be-|fore the great white|
w: ||
 [^DB]6- [DB]4 z2 | [EG]2 [EG]2 [EG]2 [FA]4 [GB]2 | [Gc]4 [Gd]2 [Ge]4 [Ge]2 | %13
w: |||
w: throne? *|Will Je- sus then your|Sav- ior be, Or|
w: |||
 ([G-d]2 [EG]2) [Gc]2 [GB]4 [DA]2 | [DG]12 |] %15
w: ||
w: will * you stand a-|lone?|
w: ||
V:2
 x12 | x12 | x12 | x12 | x12 | x12 | x12 | F4 G2 x6 || x24 | x12 | x12 | x12 | x12 | x12 | x12 |] %15
V:3
 [G,D]2 [G,C]2 [G,B,]2 [D,A,]2 [D,B,]2 [D,C]2 | [G,D]4 [G,E]2 [G,D]4 [G,D]2 | %2
 [C,C]4 [C,C]2 [C,C]4 [C,G,]2 | [G,,G,]6- [G,,G,]4 [G,D]2 | %4
 ([D,C]2 [D,C]2) [D,B,]2 [D,A,]2 [D,B,]2 [D,D]2 | [G,D]4 [A,D]2 [B,D]4 [B,D]2 | %6
 [A,E]4 [A,E]2 [A,D]4 [A,^C]2 | (D2 A,2 B,2 [D,C]4) z2 || %8
 [G,B,]2 [G,C]2 [G,B,]2 [A,D]6 [D,A,]2 [D,B,]2 [D,D]2 [G,D]4 [G,D]2 | %9
 [B,,B,^D]4 [B,,B,]2 [E,B,]4 (CE,) | [B,,F,]6- [B,,F,]4 z2 | [E,B,]2 [E,B,]2 [E,B,]2 [D,D]4 D2 | %12
 [E,C]4 [D,B,]2 [B,,C]4 [^C,^A,]2 | B,4 [C,E]2 [D,D]4 [D,C]2 | [G,,G,B,]12 |] %15
V:4
 x12 | x12 | x12 | x12 | x12 | x12 | x12 | D,6- x6 || x24 | x10 C,2 | x12 | x10 (G,=F,) | x12 | %13
 (D,2 E,2) x8 | x12 |] %15

